images/icon-xs-device.svg

<?xml version="1.0" encoding="UTF-8" standalone="no"?>
<svg width="28px" height="50px" viewBox="0 0 28 50" version="1.1" xmlns="http://www.w3.org/2000/svg" xmlns:xlink="http://www.w3.org/1999/xlink">
    <!-- Generator: Sketch 39.1 (31720) - http://www.bohemiancoding.com/sketch -->
    <title>icon-xs-device</title>
    <desc>Created with Sketch.</desc>
    <defs></defs>
    <g id="Symbols" stroke="none" stroke-width="1" fill="none" fill-rule="evenodd">
        <g id="icon-xs-device" fill="#607D8B">
            <g>
                <path d="M27.0338983,2 L26.0338983,1 L26.0338983,49 L27.0338983,48 L1,48 L2,49 L2,1 L1,2 L27.0338983,2 Z M0,0 L0,1 L0,49 L1.11022302e-16,50 L1,50 L27.0338983,50 L28.0338983,50 L28.0338983,49 L28.0338983,1 L28.0338983,0 L27.0338983,0 L1,0 L0,0 Z" id="Rectangle-path"></path>
                <polygon id="Shape" points="17.2711864 6.06779661 17.2711864 4.06779661 10.7627119 4.06779661 10.7627119 6.06779661"></polygon>
                <path d="M16.6440678,44.1186441 C16.6440678,42.6677265 15.4678667,41.4915254 14.0169492,41.4915254 C12.5660316,41.4915254 11.3898305,42.6677265 11.3898305,44.1186441 C11.3898305,45.5695616 12.5660316,46.7457627 14.0169492,46.7457627 C15.4678667,46.7457627 16.6440678,45.5695616 16.6440678,44.1186441 Z M13.3898305,44.1186441 C13.3898305,43.772296 13.6706011,43.4915254 14.0169492,43.4915254 C14.3632972,43.4915254 14.6440678,43.772296 14.6440678,44.1186441 C14.6440678,44.4649921 14.3632972,44.7457627 14.0169492,44.7457627 C13.6706011,44.7457627 13.3898305,44.4649921 13.3898305,44.1186441 Z" id="Oval"></path>
                <path d="M5,10 L7,8 L7,40.0508475 L5,38.0508475 L23,38.0508475 L21,40.0508475 L21,8 L23,10 L5,10 Z M23,8 L23,40.0508475 L5,40.0508475 L5,8 L23,8 Z" id="Rectangle-4"></path>
            </g>
        </g>
    </g>
</svg>

<svg width="28" height="50" viewBox="0 0 28 50" xmlns="http://www.w3.org/2000/svg"><title>icon-xs-device</title><g fill="#607D8B" fill-rule="evenodd"><path d="M27.034 2l-1-1v48l1-1H1l1 1V1L1 2h26.034zM0 0v50h28.034V0H0z"/><path d="M17.271 6.068v-2h-6.508v2zM16.644 44.119a2.627 2.627 0 1 0-5.254 0 2.627 2.627 0 0 0 5.254 0zm-3.254 0a.627.627 0 1 1 1.254 0 .627.627 0 0 1-1.254 0zM5 10l2-2v32.05l-2-2h18l-2 2V8l2 2H5zm18-2v32.05H5V8h18z"/></g></svg>
